styles/icons/move-a02.svg

<svg fill="#0E71B3" width="24" height="24" viewBox="0 0 24 24" xmlns="http://www.w3.org/2000/svg">
    <path d="M11,7v4H7V8.5L3,12l4,3.5V13h4v4H8.5l3.5,4l3.5-4H13v-4h4v2.5l4-3.5l-4-3.5V11h-4V7h2.5L12,3L8.5,7H11z"/>
</svg>

<?xml version="1.0" encoding="UTF-8"?>
<svg width="24px" height="24px" viewBox="0 0 24 24" version="1.1" xmlns="http://www.w3.org/2000/svg" xmlns:xlink="http://www.w3.org/1999/xlink">
    <!-- Generator: Sketch 47.1 (45422) - http://www.bohemiancoding.com/sketch -->
    <title>Icon/tool/move-a02</title>
    <desc>Created with Sketch.</desc>
    <defs></defs>
    <g id="2.-Core" stroke="none" stroke-width="1" fill="none" fill-rule="evenodd">
        <g id="Core/Icons" transform="translate(-340.000000, -1160.000000)" fill="#0E71B3">
            <g id="Map-Area-Tools" transform="translate(60.000000, 1080.000000)">
                <g id="Icon/tool/move-a02" transform="translate(280.000000, 80.000000)">
                    <path d="M11,7 L11,11 L7,11 L7,8.5 L3,12 L7,15.5 L7,13 L11,13 L11,17 L8.5,17 L12,21 L15.5,17 L13,17 L13,13 L17,13 L17,15.5 L21,12 L17,8.5 L17,11 L13,11 L13,7 L15.5,7 L12,3 L8.5,7 L11,7 Z" id="Icon"></path>
                </g>
            </g>
        </g>
    </g>
</svg>
